libs/icons/src/svg/plug.svg

<svg width="16" height="16" viewBox="0 0 16 16" fill="none" xmlns="http://www.w3.org/2000/svg">
<g clip-path="url(#clip0_4_512)">
<path fill-rule="evenodd" clip-rule="evenodd" d="M12.9845 2.07273C12.3119 1.59462 11.5028 1.33289 10.6667 1.33289C9.60569 1.33289 8.58816 1.75436 7.83793 2.50459L6.36653 3.97599L12.024 9.63347L13.4954 8.16206C14.2456 7.41184 14.6671 6.39431 14.6671 5.33332C14.6671 4.49723 14.4054 3.68812 13.9273 3.01554L15.6095 1.33331L14.6667 0.390503L12.9845 2.07273ZM7.33334 9.72384L6.27615 8.66665L7.60948 7.33331L6.66668 6.3905L5.33334 7.72384L3.976 6.3665L2.5046 7.8379C1.75437 8.58813 1.3329 9.60566 1.3329 10.6666C1.3329 11.5027 1.59464 12.3119 2.07275 12.9844L0.390533 14.6667L1.33334 15.6095L3.01556 13.9272C3.68814 14.4053 4.49724 14.6671 5.33334 14.6671C6.39432 14.6671 7.41185 14.2456 8.16207 13.4954L9.63348 12.024L8.27615 10.6666L9.60949 9.33331L8.66668 8.3905L7.33334 9.72384ZM6.39053 10.6666L5.33334 9.60946L4.39053 8.66665L3.976 8.25211L3.44741 8.78071C2.94723 9.28089 2.66623 9.95928 2.66623 10.6666C2.66623 11.374 2.94723 12.0524 3.44741 12.5526C3.94759 13.0527 4.62598 13.3337 5.33334 13.3337C6.0407 13.3337 6.71908 13.0527 7.21926 12.5526L7.74786 12.024L7.33334 11.6095L6.39053 10.6666ZM8.78074 3.4474C9.28092 2.94722 9.95931 2.66622 10.6667 2.66622C11.374 2.66622 12.0524 2.94722 12.5526 3.4474C13.0528 3.94758 13.3338 4.62597 13.3338 5.33332C13.3338 6.04068 13.0528 6.71907 12.5526 7.21925L12.024 7.74785L8.25214 3.97599L8.78074 3.4474Z" fill="#202327"/>
</g>
<defs>
<clipPath id="clip0_4_512">
<rect width="16" height="16" fill="white"/>
</clipPath>
</defs>
</svg>

<svg xmlns="http://www.w3.org/2000/svg" viewBox="0 0 16 16" class="sageicon"><path fill-rule="evenodd" d="M12.985 2.073a4 4 0 0 0-5.147.432L6.367 3.976l5.657 5.657 1.471-1.47a4 4 0 0 0 .432-5.147l1.683-1.683-.943-.942-1.682 1.682Zm-5.652 7.65L6.276 8.668 7.61 7.333l-.942-.942-1.334 1.333-1.357-1.357-1.471 1.47a4 4 0 0 0-.432 5.147L.39 14.667l.942.943 1.683-1.683a4 4 0 0 0 5.146-.432l1.471-1.471-1.357-1.357L9.61 9.333l-.942-.943-1.334 1.334Zm-.942.944L5.333 9.609l-.942-.942-.415-.415-.529.529a2.667 2.667 0 0 0 3.772 3.772l.529-.529-.415-.414-.942-.943Zm2.39-7.22a2.667 2.667 0 0 1 3.772 3.772l-.529.529-3.772-3.772.529-.529Z"/></svg>
